assets/Running shirt/Flat/running_shirt_flat.svg

<svg width="32" height="32" viewBox="0 0 32 32" fill="none" xmlns="http://www.w3.org/2000/svg">
<path d="M16 8C13.5 8 12 6 12 6V10H20V6C20 6 18.5 8 16 8Z" fill="#44911B"/>
<path d="M12.25 2H8.74999C8.33578 2 7.99999 2.33579 7.99999 2.75V11C7.99999 12.1046 7.10456 13 5.99999 13H5.75C5.33579 13 5 13.3358 5 13.75V27.7846L5.21588 27.6605L23.8702 7L24 6.63782V2.75C24 2.33579 23.6642 2 23.25 2H19.75C19.3358 2 19 2.33579 19 2.75V7C19 8.65685 17.6569 10 16 10C14.3431 10 13 8.65685 13 7V2.75C13 2.33579 12.6642 2 12.25 2Z" fill="#44911B"/>
<path d="M24.0258 11.3222L23.7537 11.4358L7.3459 29.6741L7.24416 30L5.75 30H26.25C26.6642 30 27 29.6642 27 29.25V13.75C27 13.3358 26.6642 13 26.25 13H26C25.0051 13 24.1799 12.2736 24.0258 11.3222Z" fill="#44911B"/>
<path d="M7.24416 30H5.75C5.33579 30 5 29.6642 5 29.25V27.7846L24 6.63782V11C24 11.1097 24.0088 11.2173 24.0258 11.3222L7.24416 30Z" fill="#FCD53F"/>
</svg>

<svg xmlns="http://www.w3.org/2000/svg" width="32" height="32" fill="none"><path fill="#44911B" d="M16 8c-2.5 0-4-2-4-2v4h8V6s-1.5 2-4 2Z"/><path fill="#44911B" d="M12.25 2h-3.5a.75.75 0 0 0-.75.75V11a2 2 0 0 1-2 2h-.25a.75.75 0 0 0-.75.75v14.035l.216-.125L23.87 7l.13-.362V2.75a.75.75 0 0 0-.75-.75h-3.5a.75.75 0 0 0-.75.75V7a3 3 0 1 1-6 0V2.75a.75.75 0 0 0-.75-.75ZM24.026 11.322l-.272.114L7.346 29.674 7.244 30H5.75h20.5a.75.75 0 0 0 .75-.75v-15.5a.75.75 0 0 0-.75-.75H26a2 2 0 0 1-1.974-1.678Z"/><path fill="#FCD53F" d="M7.244 30H5.75a.75.75 0 0 1-.75-.75v-1.465L24 6.638V11c0 .11.009.217.026.322L7.244 30Z"/></svg>
